X: 543
T: Denizlerin Ötesinden
C: İsmail Baha Sürelsan
O: Turkey
F: http://compmusic.upf.edu/node/140
N: buselik--sarki--duyek--denizlerin_otesinden--ismail_baha_surelsan
N: makam= buselik
N: form= sarki
N: usul= duyek = 8/4
M: 8/4
L: 1/16
K: C    
Q: 1/4=102
%%MIDI tuningsystem comma53
G2 c4 Bd c4 A2 A2  | e2 de f4 d4 d2 z2  | \
w:   |   | 
c4 d2 e2 ce da g2 gf  | 
w:   | 
e6 cd ed cB cB AB  | G2 c4 Bd c4 A2 A2  | \
w:   |   | 
e2 de f4 d4 d2 z2  | 
w:   | 
c4 d2 e2 ce da g2 gf  | e6 de gf ed e2 z2  | \
w:   |   | 
e2 f4 e2 g3f a2 ag  | 
w:   | 
d8 g8  | f2 af ge ed c3B A2 Bc  | c6 Bc ed cB c2 z2  | 
w:   |   |   | 
B2 c4 A2 B4 G2 c2  | B2 ec d4 a8  | e2 ed ec AB c3B A2 A^G  | 
w:   |   |   | 
A6 bc' c'b a^g a2 z2  | ^g2 a4 a2 a4 a2 a2  | \
w:   |   | 
b8 c'8  | c'2 a2 b2 gb ae'3 d'2 c'b  | 
w:   |   | 
c'6 bc' e'd' c'b c'2 z2  | b2 c'4 e2 g6 f2  | \
w:   |   | 
e2 c8 B8 c2 B2 d2 ce da3 g2  | 
w:   | 
gf e6 de gf ed e2  | z2 G2 c4 B/A/B/d/ c3/2B/ AG AB  | 
w:   |   | 
cB A3/2f/ ed ec df e4 e2  | z2 de f4 f/e/f/g/ a2 g/f/e/d/ cB  | 
w:   |   | 
AB c3B AB2A B2 A^G A4 A2 z2 =G2 c4 B/A/B/d/ c3/2B/  | 
w:   | 
AG AB cB A3/2f/ ed ec df e4 e2 z2 de f4 f/e/f/g/ a2  | 
w:   | 
g/f/e/d/ cB AB c3B AB2A B2  | A^G A4 A2 z2 e2 f4  | 
w:   |   | 
e2 g3f a2 ag d8 g8 f2 af ge  | ed c3B A2 Bc c6  | 
w:   |   | 
Bc ed cB c2 z2 B2 c4  | A2 B4 G2 c2 B2 ec d4 a8 e2 ed ec  | 
w:   |   | 
AB c3B A2 A^G A6  | AB cB A^G A2 z2 |
w:   |   | 


